X:1
T:Brudmarsch från Lajksjö
R:Gånglåt
O:Lajksjö, Lappland
M:4/4
L:1/16
N:Spelad av Alf Persson, nedtecknad av Sören Johansson. Finns i nothäfte "Langt bort i helvitta, langt nol i väla"
Z: till abc Eva Zwahlen 2017-08-27
K:G
|: G2B2  BABc d4 B2G2 | G2c2 cBcd e4 a2g2 | g2f2 fefa f2d2 e2f2 | g4 Lb3a Mg2f2 e2d2 | G2B2 BABc d4 B2G2 | G2c2 cBcd e4 a2g2 | g2f2 fefa f2d2 e2f2 | g4 b2a2 g8 :|]: b4 g2b2 a3g f2e2 | d2^cd e2f2 Pg2f2 e2d2 | b4 g2b2 a3g f2e2 | d2dB cA^FA G8 :|]

